epam-assets/icon-sources/18/internal-logo/epams.svg

<svg width="18" height="18" viewBox="0 0 18 18" fill="none" xmlns="http://www.w3.org/2000/svg">
<g id="18/internal-logo/epams">
<path id="icon" fill-rule="evenodd" clip-rule="evenodd" d="M14.2671 7.6701L11.4375 10.5052C10.9642 10.9794 10.3057 11.2371 9.68835 11.2474C9.02983 11.2474 8.41246 10.9897 7.93915 10.5155C7.68192 10.2577 7.68192 9.89691 7.93915 9.63917C8.19639 9.38144 8.55652 9.38144 8.81375 9.63917C9.28706 10.1134 10.0896 10.1134 10.5629 9.63917L13.3925 6.79381C13.6086 6.57732 13.7527 6.24742 13.7527 5.91753C13.7527 5.58763 13.6086 5.25773 13.3925 5.04124L12.9604 4.60825C12.7443 4.39175 12.415 4.24742 12.0858 4.24742C11.7565 4.24742 11.4273 4.39175 11.2112 4.60825L9.97645 5.84536C9.71922 6.10309 9.35909 6.10309 9.10185 5.84536C8.84462 5.58763 8.84462 5.2268 9.10185 4.96907L10.3366 3.73196C10.8099 3.25773 11.4273 3 12.0858 3C12.7443 3 13.3617 3.25773 13.835 3.73196L14.2671 4.16495C14.7404 4.63918 14.9977 5.25773 14.9977 5.91753C14.9977 6.57732 14.7404 7.19588 14.2671 7.6701ZM9.22533 8.3299C8.75202 7.85567 7.94945 7.85567 7.47614 8.3299L4.6054 11.2062C4.13209 11.6804 4.13209 12.4845 4.6054 12.9588L5.03755 13.3918C5.51086 13.866 6.31344 13.866 6.78675 13.3918L8.13466 12.0412C8.39189 11.7835 8.75202 11.7835 9.00926 12.0412C9.26649 12.299 9.26649 12.6598 9.00926 12.9175L7.66135 14.268C7.18803 14.7423 6.57067 15 5.91215 15C5.25363 15 4.63627 14.7423 4.16295 14.268L3.7308 13.8351C2.75331 12.8454 2.75331 11.2784 3.7308 10.299L6.60154 7.45361C7.07485 6.97939 7.69221 6.72165 8.35074 6.72165C9.00926 6.72165 9.62662 6.97939 10.0999 7.45361L10.5321 7.8866C10.7893 8.14433 10.7893 8.50516 10.5321 8.76289C10.2749 9.02062 9.91472 9.02062 9.65749 8.76289L9.22533 8.3299Z" fill="#6C6F80"/>
</g>
</svg>

<svg xmlns="http://www.w3.org/2000/svg" width="18" height="18" fill="none" viewBox="0 0 18 18">
  <path fill="#6C6F80" fill-rule="evenodd" d="m14.267 7.67-2.83 2.835a2.58 2.58 0 0 1-1.749.742 2.45 2.45 0 0 1-1.749-.732.594.594 0 0 1 0-.876.591.591 0 0 1 .875 0 1.253 1.253 0 0 0 1.749 0l2.83-2.845c.216-.217.36-.547.36-.876 0-.33-.144-.66-.36-.877l-.433-.433a1.272 1.272 0 0 0-.874-.36c-.33 0-.659.144-.875.36L9.976 5.845a.591.591 0 0 1-.874 0 .594.594 0 0 1 0-.876l1.235-1.237A2.45 2.45 0 0 1 12.086 3a2.45 2.45 0 0 1 1.749.732l.432.433a2.46 2.46 0 0 1 .73 1.753 2.46 2.46 0 0 1-.73 1.752Zm-5.042.66a1.253 1.253 0 0 0-1.749 0l-2.87 2.876a1.26 1.26 0 0 0 0 1.753l.432.433a1.253 1.253 0 0 0 1.749 0l1.348-1.35a.591.591 0 0 1 .874 0 .594.594 0 0 1 0 .876l-1.348 1.35A2.45 2.45 0 0 1 5.912 15a2.45 2.45 0 0 1-1.749-.732l-.432-.433a2.499 2.499 0 0 1 0-3.536L6.6 7.454a2.45 2.45 0 0 1 1.75-.732 2.45 2.45 0 0 1 1.749.732l.432.433a.594.594 0 0 1 0 .876.591.591 0 0 1-.875 0l-.432-.433Z" clip-rule="evenodd"/>
</svg>
